X: 18756
T: Ievan Polkka
R: polka
M: 2/4
K: Bminor
|:B2 Bc|dB Bd|cA Ac|d/c/B/A/ dc|
B2 Bc|dB Bd|ef/e/ dc|1 B2 BA:|2 Bc de||
|:fg/f/ df|ec cd|ef/e/ dc|Bc de|
fd df|ec cd|ef/e/ dc|1 Bc de:|2 B2 BA||

